public/upgrade-skills.svg

<svg width="800" height="800" viewBox="0 0 24 24" xmlns="http://www.w3.org/2000/svg"><path d="M14 9h-4a1 1 0 0 0-1 1v12a1 1 0 0 0 1 1h4a1 1 0 0 0 1-1V10a1 1 0 0 0-1-1Zm-1 12h-2V11h2Zm9-20h-4a1 1 0 0 0-1 1v20a1 1 0 0 0 1 1h4a1 1 0 0 0 1-1V2a1 1 0 0 0-1-1Zm-1 20h-2V3h2ZM6 15H2a1 1 0 0 0-1 1v6a1 1 0 0 0 1 1h4a1 1 0 0 0 1-1v-6a1 1 0 0 0-1-1Zm-1 6H3v-4h2Z"/></svg>

<?xml version="1.0" encoding="utf-8"?><!-- Uploaded to: SVG Repo, www.svgrepo.com, Generator: SVG Repo Mixer Tools -->
<svg fill="#000000" width="800px" height="800px" viewBox="0 0 24 24" xmlns="http://www.w3.org/2000/svg"><path d="M14,9H10a1,1,0,0,0-1,1V22a1,1,0,0,0,1,1h4a1,1,0,0,0,1-1V10A1,1,0,0,0,14,9ZM13,21H11V11h2ZM22,1H18a1,1,0,0,0-1,1V22a1,1,0,0,0,1,1h4a1,1,0,0,0,1-1V2A1,1,0,0,0,22,1ZM21,21H19V3h2ZM6,15H2a1,1,0,0,0-1,1v6a1,1,0,0,0,1,1H6a1,1,0,0,0,1-1V16A1,1,0,0,0,6,15ZM5,21H3V17H5Z"/></svg>
